icon-themes/breeze_svg/cmd/32/symbolshapes.bracket-pair.svg

<svg viewBox="0 0 32 32" xmlns="http://www.w3.org/2000/svg"><path d="m13 4c-1.10457 0-2 .8954-2 2v2 8 9 1c0 1.1046.89543 2 2 2h2v-1h-.28125-1.71875c-.55228 0-1-.4477-1-1v-.625-.375-.71875-8.28125-8.28125-1.09375-.625c0-.5523.44772-1 1-1h2v-1zm4 0v1h2c.55228 0 1 .44772 1 1v1 .71875 1.28125 7 1 9c0 .5523-.44772 1-1 1h-2v1h2c1.10457 0 2-.8954 2-2v-9-1-7-2-1c0-1.10457-.89543-2-2-2z" fill="#4d4d4d"/></svg>

<svg xmlns="http://www.w3.org/2000/svg" viewBox="0 0 32 32">
 <path 
     style="fill:#4d4d4d" 
     d="M 13 4 C 11.89543 4 11 4.8954 11 6 L 11 8 L 11 16 L 11 25 L 11 26 C 11 27.1046 11.89543 28 13 28 L 15 28 L 15 27 L 14.71875 27 L 13 27 C 12.44772 27 12 26.5523 12 26 L 12 25.375 L 12 25 L 12 24.28125 L 12 16 L 12 7.71875 L 12 6.625 L 12 6 C 12 5.4477 12.44772 5 13 5 L 15 5 L 15 4 L 13 4 z M 17 4 L 17 5 L 19 5 C 19.55228 5 20 5.44772 20 6 L 20 7 L 20 7.71875 L 20 9 L 20 16 L 20 17 L 20 26 C 20 26.5523 19.55228 27 19 27 L 17 27 L 17 28 L 19 28 C 20.10457 28 21 27.1046 21 26 L 21 17 L 21 16 L 21 9 L 21 7 L 21 6 C 21 4.89543 20.10457 4 19 4 L 17 4 z "
     />
</svg>
